Sources/FrostedUI/Resources/Icons.xcassets/arrowUpRightFromSquareFlush32.imageset/arrow-up-right-from-square-flush-32.svg

<svg width="32" height="32" viewBox="0 0 32 32" fill="none" xmlns="http://www.w3.org/2000/svg" data-fui-icon="true">
  <path
    d="M12.333 4.25C12.7472 4.25 13.083 4.58579 13.083 5C13.083 5.41421 12.7472 5.75 12.333 5.75H9.2666C8.50753 5.75 7.98321 5.75092 7.57617 5.78418C7.17817 5.81671 6.95869 5.87658 6.79688 5.95898C6.43623 6.14273 6.14273 6.43623 5.95898 6.79688C5.87658 6.95869 5.81671 7.17817 5.78418 7.57617C5.75092 7.98321 5.75 8.50753 5.75 9.2666V22.7334C5.75 23.4925 5.75092 24.0168 5.78418 24.4238C5.81671 24.8219 5.87659 25.0413 5.95898 25.2031C6.14275 25.5638 6.43631 25.8573 6.79688 26.041C6.95869 26.1234 7.17816 26.1833 7.57617 26.2158C7.98321 26.2491 8.50753 26.25 9.2666 26.25H22.7334C23.4925 26.25 24.0168 26.2491 24.4238 26.2158C24.8219 26.1833 25.0413 26.1234 25.2031 26.041C25.5637 25.8573 25.8573 25.5637 26.041 25.2031C26.1234 25.0413 26.1833 24.8219 26.2158 24.4238C26.2491 24.0168 26.25 23.4925 26.25 22.7334V19.667C26.25 19.2528 26.5858 18.917 27 18.917C27.4142 18.917 27.75 19.2528 27.75 19.667V22.7334C27.75 23.4677 27.7503 24.0636 27.7109 24.5459C27.6708 25.0369 27.5861 25.4762 27.3779 25.8848C27.0504 26.5276 26.5276 27.0504 25.8848 27.3779C25.4762 27.5861 25.0369 27.6708 24.5459 27.7109C24.0636 27.7503 23.4677 27.75 22.7334 27.75H9.2666C8.53227 27.75 7.93639 27.7503 7.4541 27.7109C6.96306 27.6708 6.52379 27.5861 6.11523 27.3779C5.47236 27.0504 4.94959 26.5275 4.62207 25.8848C4.41389 25.4762 4.32918 25.0369 4.28906 24.5459C4.24966 24.0636 4.25 23.4677 4.25 22.7334V9.2666C4.25 8.53227 4.24966 7.93639 4.28906 7.4541C4.32919 6.96307 4.4139 6.52379 4.62207 6.11523C4.94961 5.47242 5.47242 4.94961 6.11523 4.62207C6.52379 4.4139 6.96307 4.32919 7.4541 4.28906C7.93639 4.24966 8.53227 4.25 9.2666 4.25H12.333ZM27 4.25C27.4142 4.25 27.75 4.58579 27.75 5V13.667C27.7498 14.0811 27.4141 14.417 27 14.417C26.5859 14.417 26.2502 14.0811 26.25 13.667V6.81055L15.1973 17.8633C14.9044 18.1562 14.4296 18.1562 14.1367 17.8633C13.8438 17.5704 13.8438 17.0956 14.1367 16.8027L25.1895 5.75H18.333C17.9189 5.74982 17.583 5.4141 17.583 5C17.583 4.5859 17.9189 4.25018 18.333 4.25H27Z"
    fill="currentColor"
  />
</svg>

<svg xmlns="http://www.w3.org/2000/svg" width="32" height="32" fill="none" data-fui-icon="true" viewBox="0 0 32 32"><path fill="currentColor" d="M12.333 4.25a.75.75 0 0 1 0 1.5H9.267c-.76 0-1.284 0-1.69.034-.399.033-.618.093-.78.175-.36.184-.654.477-.838.838-.082.162-.142.381-.175.78-.033.406-.034.93-.034 1.69v13.466c0 .76 0 1.284.034 1.69.033.399.093.618.175.78.184.36.477.654.838.838.162.082.381.142.78.175.406.033.93.034 1.69.034h13.466c.76 0 1.284 0 1.69-.034.399-.033.618-.093.78-.175.36-.184.654-.477.838-.838.082-.162.142-.381.175-.78.033-.406.034-.93.034-1.69v-3.066a.75.75 0 0 1 1.5 0v3.066c0 .735 0 1.33-.04 1.813-.04.49-.124.93-.332 1.339a3.4 3.4 0 0 1-1.493 1.493c-.409.208-.848.293-1.34.333-.481.04-1.077.039-1.812.039H9.267c-.735 0-1.33 0-1.813-.04-.49-.04-.93-.124-1.339-.332a3.4 3.4 0 0 1-1.493-1.493c-.208-.409-.293-.848-.333-1.34-.04-.481-.039-1.077-.039-1.812V9.267c0-.735 0-1.33.04-1.813.04-.49.124-.93.332-1.339a3.4 3.4 0 0 1 1.493-1.493c.409-.208.848-.293 1.34-.333.481-.04 1.077-.039 1.812-.039zM27 4.25a.75.75 0 0 1 .75.75v8.667a.75.75 0 0 1-1.5 0V6.811L15.197 17.863a.75.75 0 1 1-1.06-1.06L25.189 5.75h-6.856a.75.75 0 0 1 0-1.5z"/></svg>
